icon/pk/database-proportion.svg

<svg viewBox="0 0 48 48" fill="none" xmlns="http://www.w3.org/2000/svg" height="1em" width="1em">
  <path d="M44 31C44 36.5228 39.5228 41 34 41C32.2091 41 30.5281 40.5292 29.0741 39.7046C26.5143 38.2529 24.6579 35.7046 24.1436 32.6983C24.0492 32.1463 24 31.5789 24 31C24 28.4323 24.9678 26.0906 26.5585 24.3198C28.3892 22.2818 31.0449 21 34 21C39.5228 21 44 25.4772 44 31Z" fill="#2F88FF" stroke="black" stroke-width="4" stroke-linecap="round" stroke-linejoin="round"/>
  <path d="M34 12V20V21C31.0449 21 28.3892 22.2818 26.5585 24.3198C24.9678 26.0906 24 28.4323 24 31C24 31.5789 24.0492 32.1463 24.1436 32.6983C24.6579 35.7046 26.5143 38.2529 29.0741 39.7046C26.4116 40.5096 22.8776 41 19 41C10.7157 41 4 38.7614 4 36V28V20V12" stroke="black" stroke-width="4" stroke-linecap="round" stroke-linejoin="round"/>
  <path d="M34 12C34 14.7614 27.2843 17 19 17C10.7157 17 4 14.7614 4 12C4 9.23858 10.7157 7 19 7C27.2843 7 34 9.23858 34 12Z" fill="#2F88FF" stroke="black" stroke-width="4" stroke-linecap="round" stroke-linejoin="round"/>
  <path d="M4 28C4 30.7614 10.7157 33 19 33C20.807 33 22.5393 32.8935 24.1436 32.6983" stroke="black" stroke-width="4" stroke-linecap="round" stroke-linejoin="round"/>
  <path d="M4 20C4 22.7614 10.7157 25 19 25C21.7563 25 24.339 24.7522 26.5585 24.3198" stroke="black" stroke-width="4" stroke-linecap="round" stroke-linejoin="round"/>
  <path d="M37 28C35 30 33 32 31 34M31 28L32 27M37 35L38 34" stroke="white" stroke-width="4" stroke-linecap="round" stroke-linejoin="round"/>
</svg>

<svg width="48" height="48" fill="none" xmlns="http://www.w3.org/2000/svg"><path d="M44 31c0 5.523-4.477 10-10 10-1.79 0-3.472-.47-4.926-1.295A10.01 10.01 0 0 1 24 31c0-2.568.968-4.91 2.558-6.68A9.975 9.975 0 0 1 34 21c5.523 0 10 4.477 10 10Z" fill="#2F88FF" stroke="#000" stroke-width="4" stroke-linecap="round" stroke-linejoin="round"/><path d="M34 12v9a9.975 9.975 0 0 0-7.442 3.32A9.963 9.963 0 0 0 24 31a10.01 10.01 0 0 0 5.074 8.705C26.412 40.51 22.878 41 19 41c-8.284 0-15-2.239-15-5V12" stroke="#000" stroke-width="4" stroke-linecap="round" stroke-linejoin="round"/><path d="M34 12c0 2.761-6.716 5-15 5-8.284 0-15-2.239-15-5s6.716-5 15-5c8.284 0 15 2.239 15 5Z" fill="#2F88FF" stroke="#000" stroke-width="4" stroke-linecap="round" stroke-linejoin="round"/><path d="M4 28c0 2.761 6.716 5 15 5 1.807 0 3.54-.106 5.144-.302M4 20c0 2.761 6.716 5 15 5 2.756 0 5.339-.248 7.558-.68" stroke="#000" stroke-width="4" stroke-linecap="round" stroke-linejoin="round"/><path d="m37 28-6 6m0-6 1-1m5 8 1-1" stroke="#fff" stroke-width="4" stroke-linecap="round" stroke-linejoin="round"/></svg>
